svg/icon/edg.svg

<svg height="32" viewBox="0 0 32 32" width="32" xmlns="http://www.w3.org/2000/svg" xmlns:xlink="http://www.w3.org/1999/xlink"><defs><linearGradient id="a" x1="50%" x2="50%" y1="0%" y2="100%"><stop offset="0" stop-color="#fff" stop-opacity=".5"/><stop offset="1" stop-opacity=".5"/></linearGradient><circle id="b" cx="16" cy="15" r="15"/><filter id="c" height="111.7%" width="111.7%" x="-5.8%" y="-4.2%"><feOffset dy=".5" in="SourceAlpha" result="shadowOffsetOuter1"/><feGaussianBlur in="shadowOffsetOuter1" result="shadowBlurOuter1" stdDeviation=".5"/><feComposite in="shadowBlurOuter1" in2="SourceAlpha" operator="out" result="shadowBlurOuter1"/><feColorMatrix in="shadowBlurOuter1" values="0 0 0 0 0   0 0 0 0 0   0 0 0 0 0  0 0 0 0.199473505 0"/></filter><path id="d" d="m24.9901316 11.5017491v6.6566717c0 .2958521.0148026.5977011-.0523027.8885557-.15.6696652-.5042763 1.2943528-1.0016447 1.76012-.2358553.2268865-.530921.373813-.8111842.5407296-1.9065789 1.1094453-3.8082237 2.221889-5.7138158 3.3343328-.5822368.3108446-1.2700658.3638181-1.9164474.2838581-.3365131-.0449775-.6651315-.143928-.9601973-.3138431-2.00625-1.1694153-4.0134869-2.3428286-6.01973687-3.5122439-.48947368-.2728635-.8555921-.7226386-1.125-1.2073963-.22006579-.4197901-.38092105-.8815592-.38092105-1.3623188 0-2.3948026 0-4.7906047 0-7.1864068.0375-.6996502.34736842-1.3623188.78848684-1.89205398.17861842-.22288855.39572369-.4157921.63848684-.56371814 1.86513154-1.08645677 3.72927634-2.17591204 5.59440794-3.26636681.3069079-.16991505.5980263-.3778111.9305921-.49175413.5526315-.17791104 1.1467105-.20489755 1.7338815-.09795102.2575658.07196402.519079.14792603.7509869.28385807 2.0289474 1.1914043 4.0618421 2.37281359 6.0907895 3.56521739.5417763.32083958.9384868.85457271 1.1960526 1.42628682.1638158.3598201.2575658.7566217.2575658 1.1544228zm-9.050329-2.47576209c-.437171.63268365-.9226973 1.23438279-1.487171 1.76011989-.2921053.2768616-.5723684.5757122-.7391448.9465268-.1342105.261869-.2240131.5607196-.1865131.8595702.0453947.4047976.3325658.7606197.7065789.9045477.3809211.1519241.8111842.1179411 1.1881579-.029985.0680921-.029985.1421053-.0409795.2171053-.029985-.0740132.4737631-.3621711.8745627-.5901316 1.2833583.0029605.0149925.0069079.0529735.0108553.067966.2052631.2198901.4223684.4277862.6276316.6436782.0523026.0489755.1006578.1169415.1717105.13993.2388158-.1849075.4263158-.4277861.6463816-.6316841.0483552-.055972.1490131-.1169415.0967105-.2038981-.2131579-.4007996-.4490132-.8055972-.5161184-1.2673663.0404605-.093953.1529605-.0149925.2200658.007996.3552631.1739131.7845394.2008996 1.1546052.0569715.5052632-.1929035.819079-.7836082.706579-1.3173413-.0858553-.4807596-.3404606-.9195402-.6838816-1.2563718-.5309211-.5447276-1.0391448-1.12743629-1.4013158-1.80109946-.0296053-.06496752-.075-.10994503-.1421053-.13293353zm-3.6325658 6.50974509c-.6009868.3258371-1.0016447.9655173-1.0993421 1.6441779-.1381579.9535233.4184211 1.9490255 1.2819079 2.3388306.5457237.2348826 1.1802632.2308846 1.7299342.0149925.2842106-.113943.5269737-.2988505.7361843-.5187406.0789473-.083958.1944078-.1589205.1944078-.2878561-.0108552-.1289355-.1263157-.2008995-.2013157-.287856-.0976974-.0869566-.1756579-.2008996-.2881579-.2688656-.1796053-.0789605-.2881579.117941-.4036185.215892-.4549342.4617692-1.2740131.4657672-1.7407894.0149926-.3019737-.2768616-.4480263-.7156422-.3769737-1.1204398.0552631-.3828086.2832237-.7456272.6236842-.9275363.2200658-.109945.4667763-.169915.7095395-.1589205.343421.021989.6572368.203898.8891447.4537731.7924342.7876062 1.5542763 1.6051974 2.3427632 2.3958021.418421.4127936.9976973.6776612 1.5878289.6546727.4490132.0109945.8822369-.1699151 1.2483553-.4237881.5388158-.3748126.8674342-1.0254873.9009868-1.684158.0710526-1.0414792-.6838816-2.0929535-1.7003289-2.293853-.6493421-.1319341-1.3825658.003998-1.8828948.4657671-.3552631.3248376-.6799342.6886557-1.03125 1.0214892-.3631579-.2988505-.6503289-.6766616-1.0055921-.9835082-.1569079-.13993-.324671-.2648676-.5190789-.3408296-.0365132-.0229885-.0483553-.033983-.0967105-.0529735-.6059211-.2608696-1.3302632-.2158921-1.8986843.1289355zm5.0368421 1.0524738c.2585527-.2578711.6246711-.4087956.9898027-.3788106.3957237.0109945.7805921.2228886.9898026.5637181.3286184.4997502.2319079 1.2183908-.1904605 1.6311845-.4332237.4207896-1.1773026.4737631-1.644079.075962-.3473684-.2948526-.6384868-.6476762-.9710526-.9575213-.0029605-.021989-.0069079-.063968-.0108553-.0829585.2763158-.2878561.5605264-.5637181.8368421-.8515742z"/><filter id="e" height="117.5%" width="119.5%" x="-9.7%" y="-6.3%"><feOffset dy=".5" in="SourceAlpha" result="shadowOffsetOuter1"/><feGaussianBlur in="shadowOffsetOuter1" result="shadowBlurOuter1" stdDeviation=".5"/><feColorMatrix in="shadowBlurOuter1" values="0 0 0 0 0   0 0 0 0 0   0 0 0 0 0  0 0 0 0.204257246 0"/></filter></defs><g fill="none" fill-rule="evenodd"><use fill="#000" filter="url(#c)" xlink:href="#b"/><use fill="#2b1544" xlink:href="#b"/><use fill="url(#a)" xlink:href="#b"/><circle cx="16" cy="15" r="14.5" stroke="#000" stroke-opacity=".097"/><g fill-rule="nonzero"><use fill="#000" filter="url(#e)" xlink:href="#d"/><use fill="#fff" fill-rule="evenodd" xlink:href="#d"/></g></g></svg>

<svg xmlns="http://www.w3.org/2000/svg" xmlns:xlink="http://www.w3.org/1999/xlink" width="32" height="32" viewBox="0 0 32 32">
  <defs>
    <linearGradient id="edg-c" x1="50%" x2="50%" y1="0%" y2="100%">
      <stop offset="0%" stop-color="#FFF" stop-opacity=".5"/>
      <stop offset="100%" stop-opacity=".5"/>
    </linearGradient>
    <circle id="edg-b" cx="16" cy="15" r="15"/>
    <filter id="edg-a" width="111.7%" height="111.7%" x="-5.8%" y="-4.2%" filterUnits="objectBoundingBox">
      <feOffset dy=".5" in="SourceAlpha" result="shadowOffsetOuter1"/>
      <feGaussianBlur in="shadowOffsetOuter1" result="shadowBlurOuter1" stdDeviation=".5"/>
      <feComposite in="shadowBlurOuter1" in2="SourceAlpha" operator="out" result="shadowBlurOuter1"/>
      <feColorMatrix in="shadowBlurOuter1" values="0 0 0 0 0   0 0 0 0 0   0 0 0 0 0  0 0 0 0.199473505 0"/>
    </filter>
    <path id="edg-e" d="M24.9901316,11.5017491 C24.9901316,13.7186407 24.9901316,15.9365317 24.9901316,18.1584208 C24.9901316,18.4542729 25.0049342,18.7561219 24.9378289,19.0469765 C24.7878289,19.7166417 24.4335526,20.3413293 23.9361842,20.8070965 C23.7003289,21.033983 23.4052632,21.1809095 23.125,21.3478261 C21.2184211,22.4572714 19.3167763,23.5697151 17.4111842,24.6821589 C16.8289474,24.9930035 16.1411184,25.045977 15.4947368,24.966017 C15.1582237,24.9210395 14.8296053,24.822089 14.5345395,24.6521739 C12.5282895,23.4827586 10.5210526,22.3093453 8.51480263,21.13993 C8.02532895,20.8670665 7.65921053,20.4172914 7.38980263,19.9325337 C7.16973684,19.5127436 7.00888158,19.0509745 7.00888158,18.5702149 C7.00888158,16.1754123 7.00888158,13.7796102 7.00888158,11.3838081 C7.04638158,10.6841579 7.35625,10.0214893 7.79736842,9.49175412 C7.97598684,9.26886557 8.19309211,9.07596202 8.43585526,8.92803598 C10.3009868,7.84157921 12.1651316,6.75212394 14.0302632,5.66166917 C14.3371711,5.49175412 14.6282895,5.28385807 14.9608553,5.16991504 C15.5134868,4.992004 16.1075658,4.96501749 16.6947368,5.07196402 C16.9523026,5.14392804 17.2138158,5.21989005 17.4457237,5.35582209 C19.4746711,6.54722639 21.5075658,7.72863568 23.5365132,8.92103948 C24.0782895,9.24187906 24.475,9.77561219 24.7325658,10.3473263 C24.8963816,10.7071464 24.9901316,11.103948 24.9901316,11.5017491 Z M15.9398026,9.02598701 C15.5026316,9.65867066 15.0171053,10.2603698 14.4526316,10.7861069 C14.1605263,11.0629685 13.8802632,11.3618191 13.7134868,11.7326337 C13.5792763,11.9945027 13.4894737,12.2933533 13.5269737,12.5922039 C13.5723684,12.9970015 13.8595395,13.3528236 14.2335526,13.4967516 C14.6144737,13.6486757 15.0447368,13.6146927 15.4217105,13.4667666 C15.4898026,13.4367816 15.5638158,13.4257871 15.6388158,13.4367816 C15.5648026,13.9105447 15.2766447,14.3113443 15.0486842,14.7201399 C15.0516447,14.7351324 15.0555921,14.7731134 15.0595395,14.7881059 C15.2648026,15.007996 15.4819079,15.2158921 15.6871711,15.4317841 C15.7394737,15.4807596 15.7878289,15.5487256 15.8588816,15.5717141 C16.0976974,15.3868066 16.2851974,15.143928 16.5052632,14.94003 C16.5536184,14.884058 16.6542763,14.8230885 16.6019737,14.7361319 C16.3888158,14.3353323 16.1529605,13.9305347 16.0858553,13.4687656 C16.1263158,13.3748126 16.2388158,13.4537731 16.3059211,13.4767616 C16.6611842,13.6506747 17.0904605,13.6776612 17.4605263,13.5337331 C17.9657895,13.3408296 18.2796053,12.7501249 18.1671053,12.2163918 C18.08125,11.7356322 17.8266447,11.2968516 17.4832237,10.96002 C16.9523026,10.4152924 16.4440789,9.83258371 16.0819079,9.15892054 C16.0523026,9.09395302 16.0069079,9.04897551 15.9398026,9.02598701 Z M12.3072368,15.5357321 C11.70625,15.8615692 11.3055921,16.5012494 11.2078947,17.17991 C11.0697368,18.1334333 11.6263158,19.1289355 12.4898026,19.5187406 C13.0355263,19.7536232 13.6700658,19.7496252 14.2197368,19.5337331 C14.5039474,19.4197901 14.7467105,19.2348826 14.9559211,19.0149925 C15.0348684,18.9310345 15.1503289,18.856072 15.1503289,18.7271364 C15.1394737,18.5982009 15.0240132,18.5262369 14.9490132,18.4392804 C14.8513158,18.3523238 14.7733553,18.2383808 14.6608553,18.1704148 C14.48125,18.0914543 14.3726974,18.2883558 14.2572368,18.3863068 C13.8023026,18.848076 12.9832237,18.852074 12.5164474,18.4012994 C12.2144737,18.1244378 12.0684211,17.6856572 12.1394737,17.2808596 C12.1947368,16.898051 12.4226974,16.5352324 12.7631579,16.3533233 C12.9832237,16.2433783 13.2299342,16.1834083 13.4726974,16.1944028 C13.8161184,16.2163918 14.1299342,16.3983008 14.3618421,16.6481759 C15.1542763,17.4357821 15.9161184,18.2533733 16.7046053,19.043978 C17.1230263,19.4567716 17.7023026,19.7216392 18.2924342,19.6986507 C18.7414474,19.7096452 19.1746711,19.5287356 19.5407895,19.2748626 C20.0796053,18.90005 20.4082237,18.2493753 20.4417763,17.5907046 C20.5128289,16.5492254 19.7578947,15.4977511 18.7414474,15.2968516 C18.0921053,15.1649175 17.3588816,15.3008496 16.8585526,15.7626187 C16.5032895,16.0874563 16.1786184,16.4512744 15.8273026,16.7841079 C15.4641447,16.4852574 15.1769737,16.1074463 14.8217105,15.8005997 C14.6648026,15.6606697 14.4970395,15.5357321 14.3026316,15.4597701 C14.2661184,15.4367816 14.2542763,15.4257871 14.2059211,15.4067966 C13.6,15.145927 12.8756579,15.1909045 12.3072368,15.5357321 Z M17.3440789,16.5882059 C17.6026316,16.3303348 17.96875,16.1794103 18.3338816,16.2093953 C18.7296053,16.2203898 19.1144737,16.4322839 19.3236842,16.7731134 C19.6523026,17.2728636 19.5555921,17.9915042 19.1332237,18.4042979 C18.7,18.8250875 17.9559211,18.878061 17.4891447,18.4802599 C17.1417763,18.1854073 16.8506579,17.8325837 16.5180921,17.5227386 C16.5151316,17.5007496 16.5111842,17.4587706 16.5072368,17.4397801 C16.7835526,17.151924 17.0677632,16.876062 17.3440789,16.5882059 Z"/>
    <filter id="edg-d" width="119.5%" height="117.5%" x="-9.7%" y="-6.3%" filterUnits="objectBoundingBox">
      <feOffset dy=".5" in="SourceAlpha" result="shadowOffsetOuter1"/>
      <feGaussianBlur in="shadowOffsetOuter1" result="shadowBlurOuter1" stdDeviation=".5"/>
      <feColorMatrix in="shadowBlurOuter1" values="0 0 0 0 0   0 0 0 0 0   0 0 0 0 0  0 0 0 0.204257246 0"/>
    </filter>
  </defs>
  <g fill="none" fill-rule="evenodd">
    <use fill="#000" filter="url(#edg-a)" xlink:href="#edg-b"/>
    <use fill="#2B1544" xlink:href="#edg-b"/>
    <use fill="url(#edg-c)" style="mix-blend-mode:soft-light" xlink:href="#edg-b"/>
    <circle cx="16" cy="15" r="14.5" stroke="#000" stroke-opacity=".097"/>
    <g fill-rule="nonzero">
      <use fill="#000" filter="url(#edg-d)" xlink:href="#edg-e"/>
      <use fill="#FFF" fill-rule="evenodd" xlink:href="#edg-e"/>
    </g>
  </g>
</svg>
